X:1
T:British Grenadiers
M:4/4
L:1/4
K:G
 D| G D G A| B2 AB/2-c/2| d GB/2-A/2G/2-F/2| G3| D| G D G A| B2 AB/2-c/2|\
 d GB/2-A/2G/2-F/2| G3| e/2e/2| d3/2 e/2 d c| B3/2- c/2 d d| e ed/2-c/2B/2-A/2|\
 G2- F| D/2D/2| G D G A| B2 A B/2c/2| d GB/2-A/2G/2-F/2| G3||
